X:1
T:The Forest of Ga-ick
T:The Forest of Ga-ick
T:The Forest of Garth
T:William Marshall
C:William Marshall
L:1/8
Q:1/8=128
M:4/4
K:Dmin
V:1 treble 
V:1
|: F | D<d d>^c d2 d>e | c>d e>d c<C C>E | D<d d>^c d2 d>e | c<A c>E D2 DF | D<d d>^c d2 d>e | %6
 c>d e>d c<C C>E | D<d d>^c d2 d>e | c<A c>E D2 De | f<d d>e c>d e<a | f<d d>e f>d f<a | %11
 f<d d>e c>d e<g | a<f g>e d2 de | f<d d>e c>d e<a | f<d d>e f>d f<=B | c>d c>G E<C E<G | %16
 A<F G>E D3 :| %17

